Hatter-kde-dark/places/symbolic/folder-google-drive-symbolic.svg

<svg xmlns="http://www.w3.org/2000/svg" width="16" height="16" viewBox="0 0 16 16">
 <defs>
  <style id="current-color-scheme" type="text/css">
   .ColorScheme-Text { color:#dedede; }
  </style>
 </defs>
 <path style="fill:currentColor" class="ColorScheme-Text" d="M 5.5 0.98046875 L 10.5 9.9804688 L 16 9.9804688 L 10.666016 0.98046875 L 5.5 0.98046875 z M 5 2.0195312 L 0 11.019531 L 2.6660156 15.019531 L 7.6992188 7.0195312 L 5 2.0195312 z M 6.5 10.960938 L 4 14.958984 L 13.332031 14.958984 L 16 10.960938 L 6.5 10.960938 z" />
</svg>

<?xml version="1.0" encoding="UTF-8"?>
<svg width="16" height="16" viewBox="0 0 16 16" xmlns="http://www.w3.org/2000/svg">
 <defs>
  <style id="current-color-scheme" type="text/css">.ColorScheme-Text { color:#dedede; }</style>
 </defs>
 <path class="ColorScheme-Text" d="m5.5 0.98047 5 9h5.5l-5.334-9h-5.166zm-0.5 1.0391-5 9 2.666 4 5.0332-8-2.6992-5zm1.5 8.9414-2.5 3.998h9.332l2.668-3.998h-9.5z" fill="currentColor"/>
</svg>
